!!!COM: colbie-caillat
!!!OTL: realize
!!!RNB: hooktheoryid: l_NgbkjyxQA
**kern	**text
*clefG2	*
*k[b-e-a-d-g-]	*
*M4/4	*
=1	=1
8f	Db
8e-	.
4e-	.
8d-	.
8e-	.
4f	.
=2	=2
8f	Ab/C
8e-	.
4e-	.
8d-	.
8e-	.
4d-	.
=3	=3
8a-	Bbm
8f	.
8f	.
8e-	.
8e-	.
8d-	.
8d-	.
8d-	.
=4	=4
8a-	Gb
8f	.
8f	.
8e-	.
8e-	.
8d-	.
4f	.
=5	=5
8f	Db
8e-	.
4e-	.
8d-	.
8e-	.
4f	.
=6	=6
8f	Ab/C
8e-	.
4e-	.
4r	.
4d-	.
=7	=7
8a-	Bbm
8f	.
8f	.
8e-	.
8e-	.
8d-	.
8d-	.
8d-	.
=8	=8
8f	Gb
8e-	.
8e-	.
8d-	.
8d-	.
8B-	.
8B-	.
8A-	.
=9	=9
1r	.
*-	*-